src/assets/img/refresh.svg

<svg width="18" height="20" viewBox="0 0 18 20" fill="none" xmlns="http://www.w3.org/2000/svg">
<path fill-rule="evenodd" clip-rule="evenodd" d="M8.48189 2.49989L6.93396 0.953004L7.88633 0L11.0577 3.16928L7.88634 6.33873L6.93395 5.38576L8.47232 3.84832C4.51244 3.99813 1.3473 7.25498 1.3473 11.2478C1.3473 15.3361 4.66547 18.6527 8.75744 18.6527C12.8494 18.6527 16.1676 15.3361 16.1676 11.2478V10.5742H17.5149V11.2478C17.5149 16.081 13.5927 20 8.75744 20C3.92221 20 0 16.081 0 11.2478C0 6.50682 3.77407 2.64542 8.48189 2.49989Z" fill="#FF868E"/>
</svg>

<svg width="18" height="20" viewBox="0 0 18 20" fill="none" xmlns="http://www.w3.org/2000/svg"><path fill-rule="evenodd" clip-rule="evenodd" d="M8.482 2.5 6.934.953 7.886 0l3.172 3.17-3.172 3.169-.952-.953 1.538-1.538a7.409 7.409 0 0 0-7.125 7.4 7.409 7.409 0 0 0 7.41 7.405 7.409 7.409 0 0 0 7.41-7.405v-.674h1.348v.674c0 4.833-3.922 8.752-8.758 8.752C3.922 20 0 16.081 0 11.248 0 6.507 3.774 2.645 8.482 2.5z" fill="#FF868E"/></svg>
